build/img/decoration/common/spinner.svg

<?xml version="1.0" encoding="UTF-8"?>
<svg width="65px" height="65px" viewBox="0 0 65 65" version="1.1" xmlns="http://www.w3.org/2000/svg" xmlns:xlink="http://www.w3.org/1999/xlink">
    <!-- Generator: Sketch 46.2 (44496) - http://www.bohemiancoding.com/sketch -->
    <title>preloader_small</title>
    <desc>Created with Sketch.</desc>
    <defs>
        <polygon id="path-1" points="32.0511991 64.2369722 64.102037 64.2369722 64.102037 0.00012037037 32.0511991 0.00012037037 0.000361111111 0.00012037037 0.000361111111 64.2369722"></polygon>
        <path d="M60.6441574,41.784287 L56.0881389,33.0526204 L62.2125833,33.0526204 C62.1126759,36.1040093 61.5794352,39.0229907 60.6441574,41.784287 L60.6441574,41.784287 Z M48.9032315,46.8241944 L48.9032315,39.1301204 L54.3186944,33.700213 L59.4452685,43.4959537 L48.9032315,46.8241944 Z M54.023787,52.8439167 L49.7121204,48.5093796 L59.1010093,45.5591019 C57.7769352,48.2385463 56.0628611,50.7049352 54.023787,52.8439167 L54.023787,52.8439167 Z M45.4702685,59.2223426 L48.3880463,49.8358611 L52.7249907,54.1643796 C50.5727685,56.2094722 48.1436944,57.8958611 45.4702685,59.2223426 L45.4702685,59.2223426 Z M33.6101759,54.4604907 L39.0256389,49.0257685 L46.6944352,49.0257685 L43.4119352,59.6003056 L33.6101759,54.4604907 Z M32.9950833,62.3688241 L32.9950833,56.23475 L41.6990648,60.7955833 C38.9510093,61.739287 36.0079537,62.27975 32.9950833,62.3688241 L32.9950833,62.3688241 Z M27.698787,49.0257685 L36.4027685,49.0257685 L32.04175,53.3795648 L27.698787,49.0257685 Z M31.1064722,62.3688241 C28.0936019,62.27975 25.15175,61.739287 22.4024907,60.7955833 L31.1064722,56.23475 L31.1064722,62.3688241 Z M17.4011019,49.0257685 L25.0759167,49.0257685 L30.4913796,54.4604907 L20.6896204,59.6003056 L17.4011019,49.0257685 Z M11.3765648,54.1643796 L15.7135093,49.8358611 L18.631287,59.2223426 C15.9831389,57.8958611 13.528787,56.2094722 11.3765648,54.1643796 L11.3765648,54.1643796 Z M5.00175,45.5591019 L14.3894352,48.5093796 L10.0524907,52.8439167 C8.03869444,50.7049352 6.32582407,48.2385463 5.00175,45.5591019 L5.00175,45.5591019 Z M9.78286111,33.700213 L15.1983241,39.1301204 L15.1983241,46.8241944 L4.63100926,43.4959537 L9.78286111,33.700213 Z M1.88897222,33.0526204 L7.98813889,33.0526204 L3.45739815,41.784287 C2.52212037,39.0229907 1.98286111,36.1040093 1.88897222,33.0526204 L1.88897222,33.0526204 Z M3.45739815,22.4648426 L7.98813889,31.1844722 L1.88897222,31.1844722 C1.98286111,28.1451204 2.52212037,25.2201204 3.45739815,22.4648426 L3.45739815,22.4648426 Z M15.1983241,27.7683611 L15.1983241,36.4687315 L10.8565648,32.1281759 L15.1983241,27.7683611 Z M15.1983241,17.4321574 L15.1983241,25.1129907 L9.78286111,30.5741944 L4.63100926,20.7411389 L15.1983241,17.4321574 Z M10.0524907,11.4124352 L14.3894352,15.727713 L5.00175,18.6840093 C6.32582407,15.9985463 8.03869444,13.5694722 10.0524907,11.4124352 L10.0524907,11.4124352 Z M18.631287,5.0135463 L15.7135093,14.4000278 L11.3765648,10.08475 C13.528787,8.06493519 15.9831389,6.3484537 18.631287,5.0135463 L18.631287,5.0135463 Z M30.4913796,9.78863889 L25.0759167,15.2366019 L17.4011019,15.2366019 L20.6896204,4.64882407 L30.4913796,9.78863889 Z M31.1064722,1.89956481 L31.1064722,8.02160185 L22.4024907,3.44150926 C25.15175,2.51586111 28.0936019,1.97539815 31.1064722,1.89956481 L31.1064722,1.89956481 Z M36.4027685,15.2366019 L27.698787,15.2366019 L32.04175,10.8960463 L36.4027685,15.2366019 Z M32.9950833,1.89956481 C36.0079537,1.97539815 38.9510093,2.51586111 41.6990648,3.44150926 L32.9950833,8.02160185 L32.9950833,1.89956481 Z M46.6944352,15.2366019 L39.0256389,15.2366019 L33.6101759,9.78863889 L43.4119352,4.64882407 L46.6944352,15.2366019 Z M43.3048056,42.0948426 L36.0332315,34.8232685 C36.3955463,34.2900278 36.6495278,33.6785463 36.774713,33.0213241 L47.0398981,33.0213241 L47.0398981,38.3441019 L43.3048056,42.0948426 Z M47.0398981,40.9982685 L47.0398981,47.1576204 L40.8889722,47.1576204 L47.0398981,40.9982685 Z M32.9541574,36.8430833 C33.6113796,36.7178981 34.2228611,36.4639167 34.7561019,36.1003981 L42.031287,43.3743796 L38.2661019,47.1576204 L32.9541574,47.1576204 L32.9541574,36.8430833 Z M22.0714722,43.3743796 L29.3454537,36.1003981 C29.8786944,36.4639167 30.4901759,36.7178981 31.1486019,36.8430833 L31.1486019,47.1576204 L25.8354537,47.1576204 L22.0714722,43.3743796 Z M17.0616574,40.9982685 L23.2125833,47.1576204 L17.0616574,47.1576204 L17.0616574,40.9982685 Z M27.3268426,33.0213241 C27.4520278,33.6785463 27.7060093,34.2900278 28.0695278,34.8232685 L20.79675,42.0948426 L17.0616574,38.3441019 L17.0616574,33.0213241 L27.3268426,33.0213241 Z M20.8051759,22.1494722 L28.0695278,29.4138241 C27.7060093,29.9470648 27.4520278,30.5573426 27.3268426,31.2157685 L17.0616574,31.2157685 L17.0616574,25.900213 L20.8051759,22.1494722 Z M25.8354537,17.1107685 L31.1486019,17.1107685 L31.1486019,27.3940093 C30.4901759,27.5191944 29.8786944,27.7731759 29.3454537,28.1366944 L22.0811019,20.8723426 L25.8354537,17.1107685 Z M17.0616574,23.2520648 L17.0616574,17.1107685 L23.2125833,17.1107685 L17.0616574,23.2520648 Z M42.0204537,20.8723426 L34.7561019,28.1366944 C34.2228611,27.7731759 33.6113796,27.5191944 32.9541574,27.3940093 L32.9541574,17.1107685 L38.2661019,17.1107685 L42.0204537,20.8723426 Z M47.0398981,23.2520648 L40.8889722,17.1107685 L47.0398981,17.1107685 L47.0398981,23.2520648 Z M47.0398981,25.900213 L47.0398981,31.2157685 L36.774713,31.2157685 C36.6495278,30.5573426 36.3955463,29.9470648 36.0332315,29.4138241 L43.2963796,22.1494722 L47.0398981,25.900213 Z M52.7249907,10.08475 L48.3880463,14.4000278 L45.4702685,5.0135463 C48.1436944,6.3484537 50.5727685,8.06493519 52.7249907,10.08475 L52.7249907,10.08475 Z M59.1010093,18.6840093 L49.7121204,15.727713 L54.023787,11.4124352 C56.0628611,13.5694722 57.7769352,15.9985463 59.1010093,18.6840093 L59.1010093,18.6840093 Z M53.2389722,32.1281759 L48.9032315,36.4687315 L48.9032315,27.7683611 L53.2389722,32.1281759 Z M54.3186944,30.5741944 L48.9032315,25.1129907 L48.9032315,17.4321574 L59.4452685,20.7411389 L54.3186944,30.5741944 Z M62.2125833,31.1844722 L56.0881389,31.1844722 L60.6441574,22.4648426 C61.5794352,25.2201204 62.1126759,28.1451204 62.2125833,31.1844722 L62.2125833,31.1844722 Z M54.714713,9.41067593 C48.9032315,3.59197222 40.8889722,0.00012037037 32.04175,0.00012037037 C23.2125833,0.00012037037 15.1983241,3.59197222 9.3880463,9.41067593 C3.60184259,15.2113241 0.000361111111,23.2520648 0.000361111111,32.1281759 C0.000361111111,40.9982685 3.60184259,49.0257685 9.3880463,54.825213 C15.1983241,60.6583611 23.2125833,64.2369722 32.04175,64.2369722 C40.8889722,64.2369722 48.9032315,60.6583611 54.714713,54.825213 C60.499713,49.0257685 64.1023981,40.9982685 64.1023981,32.1281759 C64.1023981,23.2520648 60.499713,15.2113241 54.714713,9.41067593 L54.714713,9.41067593 Z" id="path-3"></path>
    </defs>
    <g id="trash" stroke="none" stroke-width="1" fill="none" fill-rule="evenodd">
        <g id="preloader_small" transform="translate(32.500000, 32.500000) rotate(-180.000000) translate(-32.500000, -32.500000) ">
            <mask id="mask-2" fill="white">
                <use xlink:href="#path-1"></use>
            </mask>
            <g id="Clip-2"></g>
            <mask id="mask-4" fill="white">
                <use xlink:href="#path-3"></use>
            </mask>
            <use id="Fill-1" fill="#FFFFFF" xlink:href="#path-3"></use>
            <circle id="Oval" fill="#BD8F65" mask="url(#mask-4)" transform="translate(32.000000, 32.000000) scale(-1, 1) translate(-32.000000, -32.000000) " cx="32" cy="32" r="33"></circle>
        </g>
    </g>
</svg>

<svg width="65" height="65" viewBox="0 0 65 65" xmlns="http://www.w3.org/2000/svg" xmlns:xlink="http://www.w3.org/1999/xlink"><defs><path id="a" d="M32.05 64.237h32.052V0H0v64.237z"/><path d="M60.644 41.784l-4.556-8.73h6.125c-.1 3.05-.634 5.97-1.57 8.73zm-11.74 5.04V39.13l5.415-5.43 5.125 9.796-10.542 3.328zm5.12 6.02l-4.312-4.335 9.39-2.95c-1.325 2.68-3.04 5.145-5.078 7.284zm-8.554 6.378l2.918-9.386 4.337 4.328c-2.152 2.045-4.58 3.732-7.255 5.058zM33.61 54.46l5.416-5.434h7.668L43.412 59.6l-9.802-5.14zm-.615 7.91v-6.135l8.704 4.56c-2.75.944-5.692 1.485-8.705 1.574zM27.7 49.025h8.703l-4.36 4.354-4.344-4.354zm3.406 13.343c-3.012-.09-5.954-.63-8.704-1.574l8.704-4.56v6.133zM17.4 49.025h7.676l5.415 5.434-9.8 5.14-3.29-10.574zm-6.023 5.138l4.337-4.328 2.917 9.386c-2.647-1.326-5.1-3.013-7.253-5.058zM5.002 45.56l9.387 2.95-4.338 4.334c-2.013-2.14-3.726-4.605-5.05-7.285zm4.78-11.86l5.416 5.43v7.694L4.63 43.496 9.784 33.7zm-7.893-.647h6.098l-4.53 8.73c-.936-2.76-1.475-5.68-1.57-8.73zm1.567-10.588l4.53 8.72H1.89c.093-3.04.632-5.965 1.567-8.72zm11.74 5.303v8.7l-4.34-4.34 4.34-4.36zm0-10.336v7.68l-5.414 5.462L4.63 20.74 15.2 17.433zm-5.145-6.02l4.337 4.316L5 18.684C6.326 16 8.04 13.57 10.052 11.412zm8.58-6.398L15.713 14.4l-4.337-4.315c2.152-2.02 4.606-3.737 7.254-5.07zM30.49 9.79l-5.416 5.447H17.4L20.69 4.65l9.8 5.14zm.614-7.89v6.122l-8.704-4.58c2.75-.926 5.692-1.467 8.704-1.542zm5.297 13.337H27.7l4.342-4.34 4.36 4.34zM32.995 1.9c3.013.075 5.956.616 8.704 1.542l-8.705 4.58V1.9zm13.7 13.337h-7.67L33.61 9.79l9.802-5.14 3.282 10.587zm-3.39 26.858l-7.272-7.272c.363-.533.617-1.144.742-1.802H47.04v5.324l-3.735 3.75zm3.735-1.097v6.16h-6.15l6.15-6.16zm-14.086-4.155c.657-.125 1.27-.38 1.802-.743l7.275 7.274-3.764 3.784h-5.312V36.843zm-10.883 6.53l7.275-7.273c.534.364 1.145.618 1.804.743v10.315h-5.315l-3.764-3.784zM17.063 41l6.15 6.16h-6.15v-6.16zm10.265-7.977c.125.66.38 1.27.743 1.803l-7.273 7.272-3.735-3.75V33.02h10.265zm-6.522-10.87l7.265 7.264c-.364.533-.618 1.143-.743 1.802H17.062V25.9l3.743-3.75zm5.03-5.04h5.314v10.284c-.66.125-1.27.38-1.805.743l-7.264-7.265 3.755-3.76zm-8.773 6.142v-6.14h6.15l-6.15 6.14zm24.958-2.38l-7.264 7.265c-.533-.364-1.145-.618-1.802-.743V17.11h5.312l3.754 3.762zm5.02 2.38l-6.15-6.14h6.15v6.14zm0 2.648v5.316H36.775c-.125-.66-.38-1.27-.742-1.802l7.263-7.265 3.744 3.75zm5.685-15.815L48.388 14.4 45.47 5.014c2.674 1.334 5.103 3.05 7.255 5.07zm6.376 8.6l-9.388-2.957 4.312-4.316c2.04 2.157 3.753 4.587 5.077 7.272zm-5.86 13.443l-4.337 4.34v-8.7l4.336 4.36zm1.08-1.554l-5.417-5.46V17.43l10.542 3.31-5.126 9.832zm7.893.61h-6.125l4.556-8.72c.935 2.756 1.47 5.68 1.57 8.72zM54.715 9.41C48.903 3.593 40.89 0 32.042 0c-8.83 0-16.844 3.592-22.654 9.41C3.602 15.21 0 23.253 0 32.13c0 8.87 3.602 16.898 9.388 22.697 5.81 5.833 13.825 9.412 22.654 9.412 8.847 0 16.86-3.58 22.673-9.412 5.785-5.8 9.387-13.827 9.387-22.697 0-8.876-3.602-16.917-9.387-22.717z" id="b"/></defs><g transform="rotate(-180 32.5 32.5)" fill="none" fill-rule="evenodd"><mask id="c" fill="#fff"><use xlink:href="#b"/></mask><use fill="#FFF" xlink:href="#b"/><circle fill="#BD8F65" mask="url(#c)" transform="matrix(-1 0 0 1 64 0)" cx="32" cy="32" r="33"/></g></svg>
